modules/feathericon/icons/trophy.svg

<svg width="10" height="14" xmlns="http://www.w3.org/2000/svg"><path d="M2 1V0h6v1h2v1s0 2-2 2v1s0 2-2 2v3h1c1 0 1 1 1 1H2s0-1 1-1h1V7C2 7 2 5 2 5V4C0 4 0 2 0 2V1h2zm6 1h1s0 1-1 1V2zM2 2v1C1 3 1 2 1 2h1zM0 12h10v2H0v-2z" fill="#000" fill-rule="evenodd"/></svg>

<?xml version="1.0" encoding="UTF-8"?>
<svg width="10px" height="14px" viewBox="0 0 10 14" version="1.1" xmlns="http://www.w3.org/2000/svg" xmlns:xlink="http://www.w3.org/1999/xlink">
    <!-- Generator: sketchtool 48.1 (47250) - http://www.bohemiancoding.com/sketch -->
    <title>trophy</title>
    <desc>Created with sketchtool.</desc>
    <defs></defs>
    <g id="event" stroke="none" stroke-width="1" fill="none" fill-rule="evenodd">
        <g id="trophy" fill="#000000">
            <path d="M2,1 L2,0 L8,0 L8,1 L10,1 L10,2 C10,2 10,4 8,4 L8,5 C8,5 8,7 6,7 L6,10 L7,10 C8,10 8,11 8,11 L2,11 C2,11 2,10 3,10 L4,10 L4,7 C2,7 2,5 2,5 L2,4 C-8.8817842e-16,4 0,2 0,2 L0,1 L2,1 L2,1 Z M8,2 L9,2 C9,2 9,3 8,3 L8,2 Z M2,2 L2,3 C1,3 1,2 1,2 L2,2 Z M0,12 L10,12 L10,14 L0,14 L0,12 Z" id="Shape"></path>
        </g>
    </g>
</svg>
